X:1
T:Title
%%score { ( 1 3 ) | 2 }
L:1/8
M:4/4
K:Ab
V:1 treble nm="Grand Piano"
V:3 treble 
V:2 bass 
V:1
 z4 z2[Q:1/4=100] [CA]>[DB] | [Ec]>[DB] [CA]>[DB] [Ec]2 [CE]>[CE] | %2
 [DF]>[EG] [FA]>[DF] [CE]2 [CA]>[DB] | c>B A>B c>f e>c | B6 z2 | %5
 [Ec]>[DB] [CA]>[DB] [Ec]2 [CE]>[CE] | [DF]>[EG] [FA]>[DF] [CE]2 [CE]>[CE] | %7
 [DF]>[EG] [FA]>[Af] [Ae]>c B>c |[M:3/4] [CA]6 |[M:1/4] e>f |[M:4/4] z4 z2 F2 | C>C C>C C2 e>f | %12
 e2 c2 [CEA]2 C>C | G6 z2 | E>d [Gd]>[Fd] d2 G>F |[M:3/4] [CE]>[Ec] [Ac]>[Fc] [Ec]2 | %16
[M:1/4] [EAc]>[EAc] |[M:4/4] [=DAc]2 [DAB]2 [DAc]2 [DAB]2 |[M:3/4] B2 z2 z2 |[M:1/4] e>f | %20
[M:4/4] z4 z2 F2 | C>C C>C C2 e>f | e2 c2 [CEA]2 C>C | G6 z2 | E>d [Gd]>[Fd] d2 G>F | %25
[M:3/4] [CE]>[Ec] [Ac]>[Fc] [Ec]2 |[M:1/4] [Ae]>[Af] |[M:4/4] z4 [EA]2 B2 |[M:3/4] [CEA]6 |] %29
V:2
 z4 z2 [A,,A,]>[A,,A,] | [A,,A,]>[A,,A,] [A,,E,]>[A,,E,] [A,,A,]2 [A,,A,]>[A,,A,] | %2
 [D,A,]>[D,A,] [D,A,]>[D,A,] [A,,A,]2 [A,,A,]>[A,,A,] | %3
 [A,E]>[A,D] [A,C]>[A,D] [A,E]>[A,DA] [A,CA]>[K:bass][A,E] | [E,G,E]6 [A,,A,]>[A,,A,] | %5
 [A,,A,]>[A,,A,] [A,,E,]>[A,,E,] [A,,A,]2 [A,,A,]>[A,,A,] | %6
 [D,A,]>[D,A,] [D,A,]>[D,A,] [A,,A,]2 [A,,A,]>[A,,A,] | %7
 [D,A,]>[D,A,] [D,A,]>[D,D] [E,C]>[E,A,E] [E,G,D]>[E,G,E] |[M:3/4] [A,,A,]6 | %9
[M:1/4][K:treble] [A,CA]>[A,DA] |[M:4/4] [A,CA]2 [A,EA]2[K:bass] A,,2 A,,>A,, | %11
 [A,,A,]>[A,,A,] [A,,A,]>[A,,A,] [A,,A,]2[K:treble] [A,CA]>[A,DA] | %12
 [A,CA]2[K:bass] [A,E]2 A,,2 [A,,A,]>[A,,A,] | %13
 [E,B,D]>[E,B,] [E,B,]>[E,B,] [E,B,]2 [E,B,D]>[F,A,D] | %14
 [E,G,D]>[E,B,E] [E,B,]>[E,A,] [E,G,E]2 [E,B,E]>[E,G,D] | %15
[M:3/4] [A,,A,]>[A,,A,] [A,,A,]>[A,,A,] [A,,A,]2 |[M:1/4] A,,>A,, |[M:4/4] B,,2 B,,2 B,,2 B,,2 | %18
[M:3/4] E,6 |[M:1/4][K:treble] [A,CA]>[A,DA] |[M:4/4] [A,CA]2 [A,EA]2[K:bass] A,,2 A,,>A,, | %21
 [A,,A,]>[A,,A,] [A,,A,]>[A,,A,] [A,,A,]2[K:treble] [A,CA]>[A,DA] | %22
 [A,CA]2[K:bass] [A,E]2 A,,2 [A,,A,]>[A,,A,] | %23
 [E,B,D]>[E,B,] [E,B,]>[E,B,] [E,B,]2 [E,B,D]>[F,A,D] | %24
 [E,G,D]>[E,B,E] [E,B,]>[E,A,] [E,G,E]2 [E,B,E]>[E,G,D] | %25
[M:3/4] [A,,A,]>[A,,A,] [A,,A,]>[A,,A,] [A,,A,]2 |[M:1/4] [A,C]>[A,D] | %27
[M:4/4] C,2 D,2 E,>E, E,>E, |[M:3/4] A,,6 |] %29
V:3
 x8 | x8 | x8 | x8 | z4 z D [CA]>[DB] | x8 | x8 | x8 |[M:3/4] x6 |[M:1/4] x2 | %10
[M:4/4] e2 c2 [CEA]2 [A,C]>[A,C] | E6 z2 | z4 z2 F2 | z z/ D/ D>D D2 G>F | x8 |[M:3/4] x6 | %16
[M:1/4] x2 |[M:4/4] x8 |[M:3/4] [DG]2- [DGe]4 |[M:1/4] x2 |[M:4/4] e2 c2 [CEA]2 [A,C]>[A,C] | %21
 E6 z2 | z4 z2 F2 | z z/ D/ D>D D2 G>F | x8 |[M:3/4] x6 |[M:1/4] x2 | %27
[M:4/4] [EAe]2 [FAd]2 c->[EAc] [DE]>[DE] |[M:3/4] x6 |] %29

